img/what_we_do_icons/eye.svg

<?xml version="1.0" encoding="iso-8859-1"?>
<!-- Generator: Adobe Illustrator 19.0.0, SVG Export Plug-In . SVG Version: 6.00 Build 0)  -->
<svg version="1.1" id="Layer_1" xmlns="http://www.w3.org/2000/svg" xmlns:xlink="http://www.w3.org/1999/xlink" x="0px" y="0px"
	 viewBox="0 0 512 512" style="enable-background:new 0 0 512 512;" xml:space="preserve">
<g>
	<g>
		<g>
			<path d="M510.977,250.975C467.408,148.537,367.321,82.344,256,82.344S44.594,148.535,1.023,250.975
				c-1.364,3.206-1.364,6.827,0,10.033C44.591,363.458,144.677,429.656,256,429.656c111.326,0,211.411-66.198,254.977-168.648
				C512.341,257.802,512.341,254.181,510.977,250.975z M256,404.022c-99.194,0-188.557-57.922-229.191-148.029
				c40.635-90.098,130-148.014,229.191-148.014c99.193,0,188.557,57.916,229.191,148.012
				C444.557,346.098,355.194,404.022,256,404.022z"/>
			<path d="M256,157.825c-54.134,0-98.174,44.041-98.174,98.174c0,54.133,44.041,98.174,98.174,98.174
				c54.133,0,98.174-44.04,98.174-98.174C354.174,201.865,310.133,157.825,256,157.825z M256,328.541
				c-39.998,0-72.54-32.542-72.54-72.54s32.542-72.54,72.54-72.54s72.54,32.542,72.54,72.54S295.998,328.541,256,328.541z"/>
			<path d="M256,203.878c-28.739,0-52.123,23.382-52.123,52.123c0,7.078,5.737,12.817,12.817,12.817
				c7.08,0,12.817-5.739,12.817-12.817c0-14.606,11.882-26.489,26.489-26.489c7.08,0,12.817-5.739,12.817-12.817
				C268.817,209.615,263.078,203.878,256,203.878z"/>
		</g>
	</g>
</g>
<g>
</g>
<g>
</g>
<g>
</g>
<g>
</g>
<g>
</g>
<g>
</g>
<g>
</g>
<g>
</g>
<g>
</g>
<g>
</g>
<g>
</g>
<g>
</g>
<g>
</g>
<g>
</g>
<g>
</g>
</svg>

<?xml version="1.0" encoding="utf-8"?>
<svg viewBox="234.874 61.748 75.322 56.425" xmlns="http://www.w3.org/2000/svg">
  <g transform="matrix(0.147114, 0, 0, 0.162462, 234.874012, 48.369851)" style="">
    <path d="M 510.977 250.975 C 467.408 148.537 367.321 82.344 256 82.344 C 144.679 82.344 44.594 148.535 1.023 250.975 C -0.341 254.181 -0.341 257.802 1.023 261.008 C 44.591 363.458 144.677 429.656 256 429.656 C 367.326 429.656 467.411 363.458 510.977 261.008 C 512.341 257.802 512.341 254.181 510.977 250.975 Z M 256 404.022 C 156.806 404.022 67.443 346.1 26.809 255.993 C 67.444 165.895 156.809 107.979 256 107.979 C 355.193 107.979 444.557 165.895 485.191 255.991 C 444.557 346.098 355.194 404.022 256 404.022 Z"/>
    <path d="M 256 157.825 C 201.866 157.825 157.826 201.866 157.826 255.999 C 157.826 310.132 201.867 354.173 256 354.173 C 310.133 354.173 354.174 310.133 354.174 255.999 C 354.174 201.865 310.133 157.825 256 157.825 Z M 256 328.541 C 216.002 328.541 183.46 295.999 183.46 256.001 C 183.46 216.003 216.002 183.461 256 183.461 C 295.998 183.461 328.54 216.003 328.54 256.001 C 328.54 295.999 295.998 328.541 256 328.541 Z"/>
    <path d="M 256 203.878 C 227.261 203.878 203.877 227.26 203.877 256.001 C 203.877 263.079 209.614 268.818 216.694 268.818 C 223.774 268.818 229.511 263.079 229.511 256.001 C 229.511 241.395 241.393 229.512 256 229.512 C 263.08 229.512 268.817 223.773 268.817 216.695 C 268.817 209.615 263.078 203.878 256 203.878 Z"/>
  </g>
</svg>
